public/new/iocn1.svg

<svg fill="none" height="80" viewBox="0 0 80 80" width="80" xmlns="http://www.w3.org/2000/svg" xmlns:xlink="http://www.w3.org/1999/xlink"><linearGradient id="a"><stop offset="0" stop-color="#34c796"/><stop offset="1" stop-color="#0b7a55"/></linearGradient><linearGradient id="b" gradientUnits="userSpaceOnUse" x1="40" x2="40" xlink:href="#a" y1="0" y2="80"/><linearGradient id="c" gradientUnits="userSpaceOnUse" x1="40.0004" x2="40.0004" xlink:href="#a" y1="23.2002" y2="57.0551"/><circle cx="40" cy="40" fill="#151722" r="39" stroke="url(#b)" stroke-width="2"/><g fill="url(#c)"><path d="m25.419 49.0394c.2607-.2607.6191-.4128.9993-.4128h34.4739c.63 0 .945.7603.4996 1.2057l-6.81 6.81c-.2607.2607-.6191.4128-.9993.4128h-34.4739c-.63 0-.945-.7603-.4997-1.2057z"/><path d="m25.419 23.6129c.2716-.2606.63-.4127.9993-.4127h34.4739c.63 0 .945.7603.4996 1.2056l-6.81 6.8101c-.2607.2607-.6191.4127-.9993.4127h-34.4739c-.63 0-.945-.7603-.4997-1.2056z"/><path d="m54.5818 36.2447c-.2607-.2607-.6191-.4128-.9993-.4128h-34.4739c-.63 0-.945.7603-.4997 1.2056l6.8101 6.8101c.2607.2607.6191.4127.9993.4127h34.4739c.63 0 .945-.7602.4996-1.2056z"/></g></svg>

<svg width="80" height="80" viewBox="0 0 80 80" fill="none" xmlns="http://www.w3.org/2000/svg">
<circle cx="40" cy="40" r="39" fill="#151722" stroke="url(#paint0_linear_206_3916)" stroke-width="2"/>
<path d="M25.419 49.0394C25.6797 48.7787 26.0381 48.6266 26.4183 48.6266H60.8922C61.5222 48.6266 61.8372 49.3869 61.3918 49.8323L54.5818 56.6423C54.3211 56.903 53.9627 57.0551 53.5825 57.0551H19.1086C18.4786 57.0551 18.1636 56.2948 18.6089 55.8494L25.419 49.0394Z" fill="url(#paint1_linear_206_3916)"/>
<path d="M25.419 23.6129C25.6906 23.3523 26.049 23.2002 26.4183 23.2002H60.8922C61.5222 23.2002 61.8372 23.9605 61.3918 24.4058L54.5818 31.2159C54.3211 31.4766 53.9627 31.6286 53.5825 31.6286H19.1086C18.4786 31.6286 18.1636 30.8683 18.6089 30.423L25.419 23.6129Z" fill="url(#paint2_linear_206_3916)"/>
<path d="M54.5818 36.2447C54.3211 35.984 53.9627 35.8319 53.5825 35.8319H19.1086C18.4786 35.8319 18.1636 36.5922 18.6089 37.0375L25.419 43.8476C25.6797 44.1083 26.0381 44.2603 26.4183 44.2603H60.8922C61.5222 44.2603 61.8372 43.5001 61.3918 43.0547L54.5818 36.2447Z" fill="url(#paint3_linear_206_3916)"/>
<defs>
<linearGradient id="paint0_linear_206_3916" x1="40" y1="0" x2="40" y2="80" gradientUnits="userSpaceOnUse">
<stop stop-color="#34C796"/>
<stop offset="1" stop-color="#0B7A55"/>
</linearGradient>
<linearGradient id="paint1_linear_206_3916" x1="40.0004" y1="23.2002" x2="40.0004" y2="57.0551" gradientUnits="userSpaceOnUse">
<stop stop-color="#34C796"/>
<stop offset="1" stop-color="#0B7A55"/>
</linearGradient>
<linearGradient id="paint2_linear_206_3916" x1="40.0004" y1="23.2002" x2="40.0004" y2="57.0551" gradientUnits="userSpaceOnUse">
<stop stop-color="#34C796"/>
<stop offset="1" stop-color="#0B7A55"/>
</linearGradient>
<linearGradient id="paint3_linear_206_3916" x1="40.0004" y1="23.2002" x2="40.0004" y2="57.0551" gradientUnits="userSpaceOnUse">
<stop stop-color="#34C796"/>
<stop offset="1" stop-color="#0B7A55"/>
</linearGradient>
</defs>
</svg>
